X:1
T: Anne Mackenzie's March
C:
R:Reel
I:speed 232
Q:232
K:D
M:4/4
L:1/8
A|d2A2 B2dG|B4 A4|d4 A2df|a2fd A2d2|c2A2 c2eA|c4 e2f2|g2fe d2cB|A2cB A2Bc|
d2A2 B2dG|B4A4|d4 A2df|a2fd A2d2|c2A2 c2eA|c4 e2f2|g2ec Ac ec|d4d2e2|
f2d2 f2ag|f4d2f2|e2c2 g2fe|d4A4|B4 d2cB|A4d2f2|e2^de e2f^g|a4 a=g fe|
f2d2 f2ag|f4d2f2|e2c2 g2fe|d4A4|B4d2cB|A4d2f2|g2ec Ac ec|d4d2A2|
d2A2 B2AG|A4d4|e4g2fe|d4d2AF|G4B2dB|A4d2f2|e2fe d2cB|A2ce g2fe|
d2A2 B2AG|A4d4|e4g2fe|d4d2AF|G4B2dB|A4d2f2|g2ec Ac ec|d4d2e2|
f2a2 c2eg|f4d4|c2Ac e2gc|d4f4|g2B2 g2fe|f2A2 f2ed|e2^de e2f^g|a4 a=g fe|
f2a2 c2eg|f4d4|c2Ac e2gc|d4f4|B4d2cB|A4d2f2|g2ec Ac ec|d4d2||
